images/partners/redd-tec-139-19.svg

<svg width="140" height="20" viewBox="0 0 140 20" fill="none" xmlns="http://www.w3.org/2000/svg">
<path d="M17.7692 19.3057H31.9512V15.7913H21.3118V11.5169H28.868V8.19262H21.3118V3.83874H31.9398V0.375488H17.7578L17.7692 19.3057Z" fill="#161616"/>
<path d="M41.0738 0.375488H33.6367V19.3057H41.0738C47.6996 19.3057 50.6211 14.4667 50.5389 9.67889C50.4594 5.00166 47.5663 0.375488 41.0738 0.375488ZM41.0738 15.8708H37.1794V3.75648H41.0738C45.1866 3.75648 46.9168 6.7035 46.9962 9.65053C47.0784 12.7337 45.3738 15.8708 41.0738 15.8708Z" fill="#161616"/>
<path d="M59.7261 0.375488H52.2891V19.3057H59.7261C66.352 19.3057 69.2735 14.4667 69.1912 9.67889C69.1118 5.00166 66.2158 0.375488 59.7261 0.375488ZM59.7261 15.8708H55.8317V3.75648H59.7261C63.8361 3.75648 65.5663 6.7035 65.6485 9.65053C65.7308 12.7337 64.0261 15.8708 59.7261 15.8708Z" fill="#161616"/>
<path d="M90.5469 3.62033H96.5487V19.3057H100.12V3.62033H106.124V0.375488H90.5469V3.62033Z" fill="#161616"/>
<path d="M107.914 19.3057H122.096V15.7913H111.462V11.5169H119.019V8.19262H111.462V3.83874H122.096V0.375488H107.914V19.3057Z" fill="#161616"/>
<path d="M137.432 14.4685C136.146 15.6895 134.445 16.376 132.672 16.3888C127.992 16.3888 126.18 13.1155 126.148 9.97848C126.117 6.84142 128.094 3.40653 132.672 3.40653C134.37 3.38232 136.009 4.02257 137.242 5.19064L139.621 2.89314C138.712 1.97516 137.629 1.24674 136.437 0.75012C135.244 0.253497 133.964 -0.00146302 132.672 6.31477e-06C125.828 6.31477e-06 122.611 5.02895 122.637 9.97848C122.662 14.928 125.641 19.7414 132.672 19.7414C135.404 19.7414 137.917 18.8479 139.865 16.9277L137.432 14.4685Z" fill="#161616"/>
<path d="M85.2643 13.2338L72.3927 0.39058L69.8711 2.91214L82.737 15.7526H69.8711V19.3293H85.2444C86.1948 19.3285 87.106 18.9504 87.7777 18.2782C88.4495 17.6059 88.8268 16.6944 88.8268 15.744V0.359375H85.2643V13.2338Z" fill="#161616"/>
<path d="M8.92333 0.361328C5.95078 0.361328 2.96688 0.389694 0 0.389694V19.3312H3.56253V13.7492H5.58772L11.1783 19.3312H16.2299L10.5032 13.6187C18.1644 12.1778 17.6141 0.361328 8.92333 0.361328ZM3.56253 10.476V3.77069H8.92333C13.4616 3.77069 13.4956 10.476 8.92333 10.476H3.56253Z" fill="#161616"/>
</svg>

<svg width="140" height="20" fill="none" xmlns="http://www.w3.org/2000/svg"><path d="M17.77 19.306h14.18V15.79H21.31v-4.274h7.557V8.193h-7.556V3.839H31.94V.375H17.758l.011 18.93zM41.074.375h-7.437v18.93h7.437c6.626 0 9.547-4.838 9.465-9.626-.08-4.677-2.973-9.304-9.465-9.304zm0 15.496h-3.895V3.756h3.895c4.113 0 5.843 2.948 5.922 5.895.082 3.083-1.622 6.22-5.922 6.22zM59.726.375H52.29v18.93h7.437c6.626 0 9.547-4.838 9.465-9.626-.08-4.677-2.975-9.304-9.465-9.304zm0 15.496h-3.894V3.756h3.894c4.11 0 5.84 2.948 5.922 5.895.083 3.083-1.622 6.22-5.922 6.22zM90.547 3.62h6.002v15.686h3.571V3.62h6.004V.375H90.547V3.62zm17.367 15.686h14.182V15.79h-10.634v-4.274h7.557V8.193h-7.557V3.839h10.634V.375h-14.182v18.93zm29.518-4.837a6.986 6.986 0 01-4.76 1.92c-4.68 0-6.492-3.273-6.524-6.41-.031-3.138 1.946-6.572 6.524-6.572a6.509 6.509 0 014.57 1.784l2.379-2.298A9.769 9.769 0 00132.672 0c-6.844 0-10.061 5.029-10.035 9.978.025 4.95 3.004 9.763 10.035 9.763 2.732 0 5.245-.893 7.193-2.813l-2.433-2.46zm-52.168-1.235L72.393.39 69.87 2.912l12.866 12.84H69.871v3.577h15.373a3.586 3.586 0 003.583-3.585V.359h-3.563v12.875z" fill="#161616"/><path d="M8.923.361C5.951.361 2.967.39 0 .39v18.94h3.563v-5.58h2.025l5.59 5.582h5.052l-5.727-5.712C18.164 12.178 17.614.36 8.923.36zm-5.36 10.115V3.771h5.36c4.539 0 4.573 6.705 0 6.705h-5.36z" fill="#161616"/></svg>
